sacjatek/assets/icons/briefcase.svg

<svg xmlns="http://www.w3.org/2000/svg" width="512" height="512" viewBox="0 0 24 24"><path d="M19 4h-1.1A5.009 5.009 0 0 0 13 0h-2a5.009 5.009 0 0 0-4.9 4H5a5.006 5.006 0 0 0-5 5v10a5.006 5.006 0 0 0 5 5h14a5.006 5.006 0 0 0 5-5V9a5.006 5.006 0 0 0-5-5Zm-8-2h2a3 3 0 0 1 2.816 2H8.184A3 3 0 0 1 11 2ZM5 6h14a3 3 0 0 1 3 3v3H2V9a3 3 0 0 1 3-3Zm14 16H5a3 3 0 0 1-3-3v-5h9v1a1 1 0 0 0 2 0v-1h9v5a3 3 0 0 1-3 3Z"/></svg>

<?xml version="1.0" encoding="UTF-8"?>
<svg xmlns="http://www.w3.org/2000/svg" id="Outline" viewBox="0 0 24 24" width="512" height="512"><path d="M19,4H17.9A5.009,5.009,0,0,0,13,0H11A5.009,5.009,0,0,0,6.1,4H5A5.006,5.006,0,0,0,0,9V19a5.006,5.006,0,0,0,5,5H19a5.006,5.006,0,0,0,5-5V9A5.006,5.006,0,0,0,19,4ZM11,2h2a3,3,0,0,1,2.816,2H8.184A3,3,0,0,1,11,2ZM5,6H19a3,3,0,0,1,3,3v3H2V9A3,3,0,0,1,5,6ZM19,22H5a3,3,0,0,1-3-3V14h9v1a1,1,0,0,0,2,0V14h9v5A3,3,0,0,1,19,22Z"/></svg>
